icons/modern/next-track-button.svg

<svg width="32" height="32" viewBox="0 0 32 32" fill="none" xmlns="http://www.w3.org/2000/svg">
<g filter="url(#filter0_ii_18590_1391)">
<rect x="1.85529" y="1.9375" width="27.875" height="27.875" rx="3.6" fill="url(#paint0_linear_18590_1391)"/>
<rect x="1.85529" y="1.9375" width="27.875" height="27.875" rx="3.6" fill="url(#paint1_radial_18590_1391)"/>
</g>
<g filter="url(#filter1_f_18590_1391)">
<path d="M28.0428 4.4375V27.3125" stroke="url(#paint2_linear_18590_1391)" stroke-width="1.5" stroke-linecap="round"/>
</g>
<g filter="url(#filter2_f_18590_1391)">
<path d="M5.31915 3.75H27.1004" stroke="url(#paint3_linear_18590_1391)" stroke-width="1.5" stroke-linecap="round"/>
</g>
<g filter="url(#filter3_f_18590_1391)">
<path d="M14.7928 16.903C14.7928 16.8875 14.7803 16.875 14.7648 16.875V16.875C14.7576 16.875 14.7506 16.8778 14.7454 16.8828L8.48616 22.9058C7.85086 23.5171 6.79279 23.0669 6.79279 22.1852L6.79279 9.56474C6.79279 8.68308 7.85086 8.23284 8.48616 8.84416L14.7455 14.8672C14.7507 14.8722 14.7576 14.875 14.7649 14.875V14.875C14.7803 14.875 14.7928 14.8625 14.7928 14.8471V9.56474C14.7928 8.68308 15.8509 8.23284 16.4862 8.84416L22.7455 14.8672C22.7507 14.8722 22.7576 14.875 22.7648 14.875V14.875C22.7803 14.875 22.7928 14.8625 22.7928 14.8471V9.37496C22.7928 9.09882 23.0166 8.87496 23.2928 8.87496H24.2928C24.5689 8.87496 24.7928 9.09882 24.7928 9.37496V22.375C24.7928 22.6511 24.5689 22.875 24.2928 22.875H23.2928C23.0166 22.875 22.7928 22.6511 22.7928 22.375V16.903C22.7928 16.8875 22.7803 16.875 22.7648 16.875V16.875C22.7576 16.875 22.7506 16.8778 22.7454 16.8828L16.4862 22.9058C15.8509 23.5171 14.7928 23.0669 14.7928 22.1852V16.903Z" fill="#579FFF"/>
</g>
<g filter="url(#filter4_ii_18590_1391)">
<path d="M14.7928 16.903C14.7928 16.8875 14.7803 16.875 14.7648 16.875V16.875C14.7576 16.875 14.7506 16.8778 14.7454 16.8828L8.48616 22.9058C7.85086 23.5171 6.79279 23.0669 6.79279 22.1852L6.79279 9.56474C6.79279 8.68308 7.85086 8.23284 8.48616 8.84416L14.7455 14.8672C14.7507 14.8722 14.7576 14.875 14.7649 14.875V14.875C14.7803 14.875 14.7928 14.8625 14.7928 14.8471V9.56474C14.7928 8.68308 15.8509 8.23284 16.4862 8.84416L22.7455 14.8672C22.7507 14.8722 22.7576 14.875 22.7648 14.875V14.875C22.7803 14.875 22.7928 14.8625 22.7928 14.8471V9.37496C22.7928 9.09882 23.0166 8.87496 23.2928 8.87496H24.2928C24.5689 8.87496 24.7928 9.09882 24.7928 9.37496V22.375C24.7928 22.6511 24.5689 22.875 24.2928 22.875H23.2928C23.0166 22.875 22.7928 22.6511 22.7928 22.375V16.903C22.7928 16.8875 22.7803 16.875 22.7648 16.875V16.875C22.7576 16.875 22.7506 16.8778 22.7454 16.8828L16.4862 22.9058C15.8509 23.5171 14.7928 23.0669 14.7928 22.1852V16.903Z" fill="#FCF2FF"/>
</g>
<defs>
<filter id="filter0_ii_18590_1391" x="1.85529" y="0.9375" width="28.875" height="28.875" filterUnits="userSpaceOnUse" color-interpolation-filters="sRGB">
<feFlood flood-opacity="0" result="BackgroundImageFix"/>
<feBlend mode="normal" in="SourceGraphic" in2="BackgroundImageFix" result="shape"/>
<feColorMatrix in="SourceAlpha" type="matrix" values="0 0 0 0 0 0 0 0 0 0 0 0 0 0 0 0 0 0 127 0" result="hardAlpha"/>
<feOffset dx="1" dy="-1"/>
<feGaussianBlur stdDeviation="1.5"/>
<feComposite in2="hardAlpha" operator="arithmetic" k2="-1" k3="1"/>
<feColorMatrix type="matrix" values="0 0 0 0 0.188235 0 0 0 0 0.470588 0 0 0 0 0.843137 0 0 0 1 0"/>
<feBlend mode="normal" in2="shape" result="effect1_innerShadow_18590_1391"/>
<feColorMatrix in="SourceAlpha" type="matrix" values="0 0 0 0 0 0 0 0 0 0 0 0 0 0 0 0 0 0 127 0" result="hardAlpha"/>
<feOffset dy="-1"/>
<feGaussianBlur stdDeviation="1.5"/>
<feComposite in2="hardAlpha" operator="arithmetic" k2="-1" k3="1"/>
<feColorMatrix type="matrix" values="0 0 0 0 0.27451 0 0 0 0 0.34902 0 0 0 0 0.8 0 0 0 1 0"/>
<feBlend mode="normal" in2="effect1_innerShadow_18590_1391" result="effect2_innerShadow_18590_1391"/>
</filter>
<filter id="filter1_f_18590_1391" x="25.2928" y="1.6875" width="5.5" height="28.375" filterUnits="userSpaceOnUse" color-interpolation-filters="sRGB">
<feFlood flood-opacity="0" result="BackgroundImageFix"/>
<feBlend mode="normal" in="SourceGraphic" in2="BackgroundImageFix" result="shape"/>
<feGaussianBlur stdDeviation="1" result="effect1_foregroundBlur_18590_1391"/>
</filter>
<filter id="filter2_f_18590_1391" x="2.56915" y="1" width="27.2812" height="5.5" filterUnits="userSpaceOnUse" color-interpolation-filters="sRGB">
<feFlood flood-opacity="0" result="BackgroundImageFix"/>
<feBlend mode="normal" in="SourceGraphic" in2="BackgroundImageFix" result="shape"/>
<feGaussianBlur stdDeviation="1" result="effect1_foregroundBlur_18590_1391"/>
</filter>
<filter id="filter3_f_18590_1391" x="5.79279" y="7.56274" width="20" height="16.6244" filterUnits="userSpaceOnUse" color-interpolation-filters="sRGB">
<feFlood flood-opacity="0" result="BackgroundImageFix"/>
<feBlend mode="normal" in="SourceGraphic" in2="BackgroundImageFix" result="shape"/>
<feGaussianBlur stdDeviation="0.5" result="effect1_foregroundBlur_18590_1391"/>
</filter>
<filter id="filter4_ii_18590_1391" x="5.79279" y="8.16274" width="19.4" height="16.0244" filterUnits="userSpaceOnUse" color-interpolation-filters="sRGB">
<feFlood flood-opacity="0" result="BackgroundImageFix"/>
<feBlend mode="normal" in="SourceGraphic" in2="BackgroundImageFix" result="shape"/>
<feColorMatrix in="SourceAlpha" type="matrix" values="0 0 0 0 0 0 0 0 0 0 0 0 0 0 0 0 0 0 127 0" result="hardAlpha"/>
<feOffset dx="-1" dy="1"/>
<feGaussianBlur stdDeviation="1"/>
<feComposite in2="hardAlpha" operator="arithmetic" k2="-1" k3="1"/>
<feColorMatrix type="matrix" values="0 0 0 0 0.866667 0 0 0 0 0.819608 0 0 0 0 0.941176 0 0 0 1 0"/>
<feBlend mode="normal" in2="shape" result="effect1_innerShadow_18590_1391"/>
<feColorMatrix in="SourceAlpha" type="matrix" values="0 0 0 0 0 0 0 0 0 0 0 0 0 0 0 0 0 0 127 0" result="hardAlpha"/>
<feOffset dx="0.4" dy="-0.4"/>
<feGaussianBlur stdDeviation="0.5"/>
<feComposite in2="hardAlpha" operator="arithmetic" k2="-1" k3="1"/>
<feColorMatrix type="matrix" values="0 0 0 0 1 0 0 0 0 0.988235 0 0 0 0 1 0 0 0 1 0"/>
<feBlend mode="normal" in2="effect1_innerShadow_18590_1391" result="effect2_innerShadow_18590_1391"/>
</filter>
<linearGradient id="paint0_linear_18590_1391" x1="15.7928" y1="5.51201" x2="15.7928" y2="38.7647" gradientUnits="userSpaceOnUse">
<stop stop-color="#5CB7FF"/>
<stop offset="1" stop-color="#4878DD"/>
</linearGradient>
<radialGradient id="paint1_radial_18590_1391" cx="0" cy="0" r="1" gradientUnits="userSpaceOnUse" gradientTransform="translate(27.5115 4.03125) rotate(136.771) scale(2.14444 2.50466)">
<stop stop-color="#7BD7FF"/>
<stop offset="1" stop-color="#7BD7FF" stop-opacity="0"/>
</radialGradient>
<linearGradient id="paint2_linear_18590_1391" x1="28.5428" y1="4.4375" x2="28.5428" y2="27.3125" gradientUnits="userSpaceOnUse">
<stop stop-color="#7FD9FF"/>
<stop offset="1" stop-color="#639DF4"/>
</linearGradient>
<linearGradient id="paint3_linear_18590_1391" x1="28.2567" y1="4.00002" x2="2.7254" y2="4.00002" gradientUnits="userSpaceOnUse">
<stop stop-color="#7DD8FF"/>
<stop offset="1" stop-color="#5DB6FF"/>
</linearGradient>
</defs>
</svg>

<svg width="32" height="32" fill="none" xmlns="http://www.w3.org/2000/svg"><g filter="url(#a)"><rect x="1.855" y="1.938" width="27.875" height="27.875" rx="3.6" fill="url(#b)"/><rect x="1.855" y="1.938" width="27.875" height="27.875" rx="3.6" fill="url(#c)"/></g><g filter="url(#d)"><path d="M28.043 4.438v22.875" stroke="url(#e)" stroke-width="1.5" stroke-linecap="round"/></g><g filter="url(#f)"><path d="M5.32 3.75H27.1" stroke="url(#g)" stroke-width="1.5" stroke-linecap="round"/></g><g filter="url(#h)"><path d="M14.793 16.903a.028.028 0 0 0-.047-.02l-6.26 6.023c-.635.611-1.693.16-1.693-.72V9.564c0-.882 1.058-1.332 1.693-.72l6.26 6.022a.028.028 0 0 0 .047-.02V9.565c0-.882 1.058-1.332 1.693-.72l6.26 6.022a.028.028 0 0 0 .047-.02V9.375a.5.5 0 0 1 .5-.5h1a.5.5 0 0 1 .5.5v13a.5.5 0 0 1-.5.5h-1a.5.5 0 0 1-.5-.5v-5.472a.028.028 0 0 0-.047-.02l-6.26 6.023c-.635.611-1.693.16-1.693-.72v-5.283Z" fill="#579FFF"/></g><g filter="url(#i)"><path d="M14.793 16.903a.028.028 0 0 0-.047-.02l-6.26 6.023c-.635.611-1.693.16-1.693-.72V9.564c0-.882 1.058-1.332 1.693-.72l6.26 6.022a.028.028 0 0 0 .047-.02V9.565c0-.882 1.058-1.332 1.693-.72l6.26 6.022a.028.028 0 0 0 .047-.02V9.375a.5.5 0 0 1 .5-.5h1a.5.5 0 0 1 .5.5v13a.5.5 0 0 1-.5.5h-1a.5.5 0 0 1-.5-.5v-5.472a.028.028 0 0 0-.047-.02l-6.26 6.023c-.635.611-1.693.16-1.693-.72v-5.283Z" fill="#FCF2FF"/></g><defs><filter id="a" x="1.855" y=".938" width="28.875" height="28.875" filterUnits="userSpaceOnUse" color-interpolation-filters="sRGB"><feFlood flood-opacity="0" result="BackgroundImageFix"/><feBlend in="SourceGraphic" in2="BackgroundImageFix" result="shape"/><feColorMatrix in="SourceAlpha" values="0 0 0 0 0 0 0 0 0 0 0 0 0 0 0 0 0 0 127 0" result="hardAlpha"/><feOffset dx="1" dy="-1"/><feGaussianBlur stdDeviation="1.5"/><feComposite in2="hardAlpha" operator="arithmetic" k2="-1" k3="1"/><feColorMatrix values="0 0 0 0 0.188235 0 0 0 0 0.470588 0 0 0 0 0.843137 0 0 0 1 0"/><feBlend in2="shape" result="effect1_innerShadow_18590_1391"/><feColorMatrix in="SourceAlpha" values="0 0 0 0 0 0 0 0 0 0 0 0 0 0 0 0 0 0 127 0" result="hardAlpha"/><feOffset dy="-1"/><feGaussianBlur stdDeviation="1.5"/><feComposite in2="hardAlpha" operator="arithmetic" k2="-1" k3="1"/><feColorMatrix values="0 0 0 0 0.27451 0 0 0 0 0.34902 0 0 0 0 0.8 0 0 0 1 0"/><feBlend in2="effect1_innerShadow_18590_1391" result="effect2_innerShadow_18590_1391"/></filter><filter id="d" x="25.293" y="1.688" width="5.5" height="28.375" filterUnits="userSpaceOnUse" color-interpolation-filters="sRGB"><feFlood flood-opacity="0" result="BackgroundImageFix"/><feBlend in="SourceGraphic" in2="BackgroundImageFix" result="shape"/><feGaussianBlur stdDeviation="1" result="effect1_foregroundBlur_18590_1391"/></filter><filter id="f" x="2.569" y="1" width="27.281" height="5.5" filterUnits="userSpaceOnUse" color-interpolation-filters="sRGB"><feFlood flood-opacity="0" result="BackgroundImageFix"/><feBlend in="SourceGraphic" in2="BackgroundImageFix" result="shape"/><feGaussianBlur stdDeviation="1" result="effect1_foregroundBlur_18590_1391"/></filter><filter id="h" x="5.793" y="7.563" width="20" height="16.624" filterUnits="userSpaceOnUse" color-interpolation-filters="sRGB"><feFlood flood-opacity="0" result="BackgroundImageFix"/><feBlend in="SourceGraphic" in2="BackgroundImageFix" result="shape"/><feGaussianBlur stdDeviation=".5" result="effect1_foregroundBlur_18590_1391"/></filter><filter id="i" x="5.793" y="8.163" width="19.4" height="16.024" filterUnits="userSpaceOnUse" color-interpolation-filters="sRGB"><feFlood flood-opacity="0" result="BackgroundImageFix"/><feBlend in="SourceGraphic" in2="BackgroundImageFix" result="shape"/><feColorMatrix in="SourceAlpha" values="0 0 0 0 0 0 0 0 0 0 0 0 0 0 0 0 0 0 127 0" result="hardAlpha"/><feOffset dx="-1" dy="1"/><feGaussianBlur stdDeviation="1"/><feComposite in2="hardAlpha" operator="arithmetic" k2="-1" k3="1"/><feColorMatrix values="0 0 0 0 0.866667 0 0 0 0 0.819608 0 0 0 0 0.941176 0 0 0 1 0"/><feBlend in2="shape" result="effect1_innerShadow_18590_1391"/><feColorMatrix in="SourceAlpha" values="0 0 0 0 0 0 0 0 0 0 0 0 0 0 0 0 0 0 127 0" result="hardAlpha"/><feOffset dx=".4" dy="-.4"/><feGaussianBlur stdDeviation=".5"/><feComposite in2="hardAlpha" operator="arithmetic" k2="-1" k3="1"/><feColorMatrix values="0 0 0 0 1 0 0 0 0 0.988235 0 0 0 0 1 0 0 0 1 0"/><feBlend in2="effect1_innerShadow_18590_1391" result="effect2_innerShadow_18590_1391"/></filter><linearGradient id="b" x1="15.793" y1="5.512" x2="15.793" y2="38.765" gradientUnits="userSpaceOnUse"><stop stop-color="#5CB7FF"/><stop offset="1" stop-color="#4878DD"/></linearGradient><linearGradient id="e" x1="28.543" y1="4.438" x2="28.543" y2="27.313" gradientUnits="userSpaceOnUse"><stop stop-color="#7FD9FF"/><stop offset="1" stop-color="#639DF4"/></linearGradient><linearGradient id="g" x1="28.257" y1="4" x2="2.725" y2="4" gradientUnits="userSpaceOnUse"><stop stop-color="#7DD8FF"/><stop offset="1" stop-color="#5DB6FF"/></linearGradient><radialGradient id="c" cx="0" cy="0" r="1" gradientUnits="userSpaceOnUse" gradientTransform="matrix(-1.56249 1.46876 -1.71548 -1.82495 27.512 4.031)"><stop stop-color="#7BD7FF"/><stop offset="1" stop-color="#7BD7FF" stop-opacity="0"/></radialGradient></defs></svg>
